icons/mimetypes/64/application-pgp-signature.svg

<?xml version="1.0" encoding="UTF-8" standalone="no"?>
<svg
   xmlns:dc="http://purl.org/dc/elements/1.1/"
   xmlns:cc="http://creativecommons.org/ns#"
   xmlns:rdf="http://www.w3.org/1999/02/22-rdf-syntax-ns#"
   xmlns:svg="http://www.w3.org/2000/svg"
   xmlns="http://www.w3.org/2000/svg"
   xmlns:xlink="http://www.w3.org/1999/xlink"
   xmlns:sodipodi="http://sodipodi.sourceforge.net/DTD/sodipodi-0.dtd"
   xmlns:inkscape="http://www.inkscape.org/namespaces/inkscape"
   width="64"
   viewBox="0 0 64 64"
   height="64"
   id="svg2"
   version="1.1"
   inkscape:version="0.91 r13725"
   sodipodi:docname="application-pgp-signature.svg">
  <metadata
     id="metadata45">
    <rdf:RDF>
      <cc:Work
         rdf:about="">
        <dc:format>image/svg+xml</dc:format>
        <dc:type
           rdf:resource="http://purl.org/dc/dcmitype/StillImage" />
      </cc:Work>
    </rdf:RDF>
  </metadata>
  <sodipodi:namedview
     pagecolor="#ffffff"
     bordercolor="#666666"
     borderopacity="1"
     objecttolerance="10"
     gridtolerance="10"
     guidetolerance="10"
     inkscape:pageopacity="0"
     inkscape:pageshadow="2"
     inkscape:window-width="640"
     inkscape:window-height="480"
     id="namedview43"
     showgrid="false"
     inkscape:snap-bbox="true"
     inkscape:bbox-nodes="true"
     inkscape:zoom="1"
     inkscape:cx="37.108756"
     inkscape:cy="34.320086"
     inkscape:current-layer="svg2">
    <inkscape:grid
       type="xygrid"
       id="grid4173" />
  </sodipodi:namedview>
  <defs
     id="defs4">
    <linearGradient
       id="a"
       y1="3"
       y2="61"
       x2="0"
       gradientUnits="userSpaceOnUse"
       gradientTransform="matrix(1 0 0-1 0 64)">
      <stop
         stop-color="#5e6b78"
         id="stop7" />
      <stop
         offset="1"
         stop-color="#768492"
         id="stop9" />
    </linearGradient>
    <linearGradient
       id="b"
       y1="61"
       y2="47"
       x2="0"
       gradientUnits="userSpaceOnUse"
       gradientTransform="matrix(1 0 0-1 0 64)">
      <stop
         stop-color="#dedede"
         id="stop12" />
      <stop
         offset="1"
         stop-color="#fbfbfb"
         id="stop14" />
    </linearGradient>
    <linearGradient
       id="c"
       y1="17"
       x1="40"
       y2="31"
       x2="54"
       gradientUnits="userSpaceOnUse">
      <stop
         stop-color="#383e51"
         id="stop17" />
      <stop
         offset="1"
         stop-color="#655c6f"
         stop-opacity="0"
         id="stop19" />
    </linearGradient>
    <linearGradient
       inkscape:collect="always"
       xlink:href="#linearGradient6251"
       id="linearGradient7937"
       gradientUnits="userSpaceOnUse"
       gradientTransform="translate(-48,-332.36221)"
       x1="58"
       y1="392.36221"
       x2="58"
       y2="336.36221" />
    <linearGradient
       inkscape:collect="always"
       id="linearGradient6251">
      <stop
         style="stop-color:#ffffff;stop-opacity:0"
         offset="0"
         id="stop6253" />
      <stop
         style="stop-color:#ffffff;stop-opacity:0.2"
         offset="1"
         id="stop6255" />
    </linearGradient>
    <linearGradient
       inkscape:collect="always"
       xlink:href="#linearGradient9654"
       id="linearGradient9730"
       gradientUnits="userSpaceOnUse"
       x1="40"
       y1="17"
       x2="54"
       y2="31" />
    <linearGradient
       inkscape:collect="always"
       id="linearGradient9654">
      <stop
         style="stop-color:#060606;stop-opacity:1"
         offset="0"
         id="stop9656" />
      <stop
         style="stop-color:#000000;stop-opacity:0"
         offset="1"
         id="stop9658" />
    </linearGradient>
  </defs>
  <g
     id="g4251">
    <path
       inkscape:export-ydpi="96"
       inkscape:export-xdpi="96"
       inkscape:connector-curvature="0"
       style="fill:#2cbd2c;fill-opacity:1"
       id="path7345"
       d="m 10,61 0,-58 30,0 14,14 0,30 0,14 -14,0 -30,0 z" />
    <rect
       inkscape:export-ydpi="96"
       inkscape:export-xdpi="96"
       width="30"
       x="10"
       y="-3.9999731"
       height="1"
       style="color:#000000;clip-rule:nonzero;display:inline;overflow:visible;visibility:visible;opacity:0.5;isolation:auto;mix-blend-mode:normal;color-interpolation:sRGB;color-interpolation-filters:linearRGB;solid-color:#000000;solid-opacity:1;fill:#ffffff;fill-opacity:1;fill-rule:nonzero;stroke-width:1;stroke-linecap:butt;stroke-linejoin:miter;stroke-miterlimit:4;stroke-dasharray:none;stroke-dashoffset:0;stroke-opacity:1;color-rendering:auto;image-rendering:auto;shape-rendering:auto;text-rendering:auto;enable-background:accumulate"
       id="rect7347"
       transform="scale(1,-1)" />
    <rect
       inkscape:export-ydpi="96"
       inkscape:export-xdpi="96"
       width="44"
       x="10"
       y="-60.999969"
       height="1"
       style="color:#000000;clip-rule:nonzero;display:inline;overflow:visible;visibility:visible;opacity:0.25;isolation:auto;mix-blend-mode:normal;color-interpolation:sRGB;color-interpolation-filters:linearRGB;solid-color:#000000;solid-opacity:1;fill:#000000;fill-opacity:1;fill-rule:nonzero;stroke-width:1;stroke-linecap:butt;stroke-linejoin:miter;stroke-miterlimit:4;stroke-dasharray:none;stroke-dashoffset:0;stroke-opacity:1;color-rendering:auto;image-rendering:auto;shape-rendering:auto;text-rendering:auto;enable-background:accumulate"
       id="rect7349"
       transform="scale(1,-1)" />
    <path
       inkscape:export-ydpi="96"
       inkscape:export-xdpi="96"
       inkscape:connector-curvature="0"
       style="opacity:0.4;fill:#000000;fill-opacity:1;fill-rule:evenodd"
       id="path7351"
       d="M 54,17 40,3 40,17 Z" />
    <path
       inkscape:export-ydpi="96"
       inkscape:export-xdpi="96"
       inkscape:connector-curvature="0"
       style="opacity:0.2;fill:url(#linearGradient9730);fill-rule:evenodd"
       id="path9708"
       d="M 40,17 54,30.99999 54,17 Z" />
    <path
       id="path37"
       d="M 41.855469 19.533203 C 41.715822 19.53171 41.572576 19.570176 41.4375 19.65625 C 41.36537 19.70626 41.052028 20.081844 40.744141 20.492188 L 40.183594 21.246094 L 39.980469 21.107422 C 39.696187 20.919951 39.421879 20.87849 39.166016 20.994141 C 38.989175 21.073771 38.574729 21.608824 35.855469 25.224609 C 34.139364 27.504094 32.743907 29.386921 32.748047 29.416016 C 32.751547 29.440306 33.448292 29.984415 34.291016 30.617188 L 35.832031 31.775391 L 37.859375 29.074219 C 38.975189 27.588181 39.903528 26.385635 39.925781 26.402344 C 39.997991 26.456344 40.129383 27.622928 40.103516 27.998047 C 40.093136 28.202666 40.016599 28.570371 39.9375 28.814453 C 39.796421 29.250621 39.781059 29.276184 37.267578 32.634766 C 35.877473 34.491521 34.720034 36.068529 34.699219 36.130859 C 34.639529 36.302744 34.705696 36.624244 34.835938 36.808594 C 35.053365 37.11941 35.591159 37.217644 35.896484 36.996094 C 36.10741 36.842182 41.085835 30.140583 41.244141 29.791016 C 41.706562 28.794169 41.802311 27.517674 41.509766 26.261719 C 41.394177 25.763212 41.243038 25.284024 41.095703 24.943359 C 41.052783 24.850349 41.124191 24.731337 41.589844 24.105469 C 42.029854 23.508029 42.130744 23.340258 42.138672 23.185547 C 42.156092 22.856285 42.055445 22.67301 41.732422 22.421875 L 41.431641 22.1875 L 42.029297 21.384766 C 42.519217 20.720856 42.625138 20.547253 42.632812 20.392578 C 42.654982 19.899442 42.274409 19.537682 41.855469 19.533203 z M 31.787109 30.666016 C 31.772439 30.668116 29.943868 33.097789 27.720703 36.058594 C 24.14501 40.82641 23.636429 41.532136 23.306641 42.138672 C 22.651441 43.346217 21.93845 45.187194 21.464844 46.869141 C 21.157852 47.947895 21.142433 47.850274 21.570312 47.621094 C 22.890107 46.908276 24.61412 45.75115 25.617188 44.900391 C 26.598018 44.067509 26.765023 43.855749 30.919922 38.322266 L 34.916016 32.994141 L 33.363281 31.828125 C 32.509286 31.18689 31.801783 30.663928 31.787109 30.666016 z M 32.236328 43.005859 C 32.040078 42.994734 31.838031 43.000844 31.707031 43.027344 L 31.707031 43.029297 C 31.086031 43.160297 30.394547 43.698359 30.060547 44.318359 C 29.970547 44.479359 29.827281 44.844141 29.738281 45.119141 C 29.654281 45.399141 29.576312 45.632672 29.570312 45.638672 C 29.522313 45.698672 28.334719 45.983516 27.636719 46.103516 C 25.995719 46.390516 25.547719 46.497484 25.386719 46.646484 C 25.070719 46.938484 25.315672 47.232563 25.763672 47.101562 C 25.882672 47.065562 26.389906 46.964859 26.878906 46.880859 C 27.368906 46.796859 28.114109 46.641875 28.537109 46.546875 C 28.961109 46.445875 29.319891 46.378484 29.337891 46.396484 C 29.355891 46.414484 29.284875 46.754297 29.171875 47.154297 L 28.96875 47.871094 L 28.519531 48.068359 C 28.274531 48.175359 27.923281 48.360328 27.738281 48.486328 C 27.177281 48.856328 27.068891 49.321141 27.462891 49.619141 C 27.677891 49.780141 28.274531 49.774281 28.644531 49.613281 C 28.972531 49.464281 29.157062 49.255891 29.414062 48.712891 C 29.551063 48.431891 29.659188 48.283625 29.742188 48.265625 C 29.808187 48.247625 30.400641 48.128234 31.056641 47.990234 C 31.713641 47.859234 32.309719 47.732844 32.386719 47.714844 C 32.511719 47.684844 32.524281 47.696547 32.488281 47.810547 C 32.464281 47.882547 32.356188 48.092344 32.242188 48.277344 C 32.129188 48.462344 32.039062 48.682484 32.039062 48.771484 C 32.039062 48.956484 32.195312 49.14175 32.320312 49.09375 C 32.368313 49.07575 32.432891 49.058594 32.462891 49.058594 C 32.492891 49.058594 32.624859 48.96275 32.755859 48.84375 C 33.000859 48.62275 33.591797 47.541453 33.591797 47.314453 C 33.591797 47.201453 33.681375 47.172719 33.734375 47.261719 C 33.752375 47.291719 33.888109 47.345859 34.037109 47.380859 C 34.246109 47.434859 34.306641 47.475312 34.306641 47.570312 C 34.306641 47.755313 34.611859 48.025125 34.880859 48.078125 C 35.089859 48.114125 35.358531 48.072125 35.644531 47.953125 C 35.745531 47.911125 35.751797 47.923125 35.716797 48.078125 C 35.692797 48.174125 35.518984 48.478766 35.333984 48.759766 C 34.939984 49.344766 34.462891 50.2755 34.337891 50.6875 C 34.236891 51.0395 34.277891 51.302734 34.462891 51.427734 C 34.629891 51.534734 34.903875 51.486078 35.046875 51.330078 C 35.171875 51.193078 35.853516 49.755609 36.103516 49.099609 C 36.282516 48.639609 36.365484 48.513984 36.771484 48.083984 C 37.105484 47.731984 37.214578 47.648156 37.142578 47.785156 C 37.023578 48.042156 37.029156 48.238422 37.160156 48.357422 C 37.440156 48.614422 37.846219 48.36375 38.199219 47.71875 C 38.408219 47.33675 38.563844 47.224375 39.339844 46.859375 L 39.744141 46.673828 L 39.703125 46.894531 C 39.679125 47.013531 39.541438 47.354484 39.398438 47.646484 C 39.117438 48.237484 39.065422 48.613547 39.232422 48.935547 C 39.345422 49.156547 39.464672 49.163656 40.013672 48.972656 C 40.777672 48.715656 41.774203 48.123203 42.033203 47.783203 C 42.385203 47.305203 42.493297 46.846406 42.279297 46.691406 C 42.058297 46.530406 41.933344 46.595812 41.652344 47.007812 C 41.276344 47.568812 40.811281 48.005562 40.363281 48.226562 C 40.154281 48.333562 39.969172 48.404719 39.951172 48.386719 C 39.927172 48.362719 40.404156 47.079562 40.660156 46.476562 C 40.714156 46.351562 40.757812 46.195859 40.757812 46.130859 C 40.757812 45.963859 40.548141 45.773438 40.369141 45.773438 C 40.285141 45.773438 39.890094 45.933719 39.496094 46.136719 C 38.678094 46.542719 38.732406 46.578453 38.941406 45.814453 C 39.066406 45.343453 39.025281 45.2175 38.738281 45.1875 C 38.463281 45.1575 38.356469 45.248312 38.105469 45.695312 C 37.944469 45.999313 37.730359 46.250813 37.318359 46.632812 C 36.775359 47.133812 36.751 47.1515 36.625 47.0625 C 36.434 46.9255 36.326328 46.943781 35.861328 47.175781 C 35.407328 47.402781 35.257531 47.432922 35.144531 47.294922 C 35.048531 47.181922 35.199297 47.121938 36.029297 46.960938 C 36.835297 46.805937 36.935547 46.762703 36.935547 46.595703 C 36.935547 46.326703 36.714313 46.071437 36.320312 45.898438 C 35.639313 45.594437 35.563625 45.575344 35.265625 45.652344 C 34.943625 45.736344 34.465391 46.195422 34.400391 46.482422 C 34.334391 46.781422 34.130859 46.691281 34.130859 46.363281 C 34.130859 46.226281 33.963187 45.880312 33.867188 45.820312 C 33.664187 45.683312 33.336937 45.98225 33.085938 46.53125 L 32.888672 46.955078 L 32.447266 47.050781 C 31.874266 47.175781 30.209281 47.509734 29.988281 47.552734 C 29.845281 47.576734 29.821562 47.564469 29.851562 47.480469 C 29.875563 47.420469 29.946578 47.159625 30.017578 46.890625 C 30.202578 46.150625 30.257391 46.053984 30.525391 45.958984 C 30.847391 45.845984 31.934844 45.379328 32.214844 45.236328 C 32.345844 45.170328 32.613547 44.968062 32.810547 44.789062 C 33.413547 44.228063 33.508125 43.708172 33.078125 43.326172 C 32.959125 43.225172 32.803422 43.117891 32.732422 43.087891 C 32.622422 43.045891 32.432578 43.016984 32.236328 43.005859 z M 31.634766 43.703125 C 31.717656 43.698469 31.815703 43.701484 31.939453 43.708984 C 32.255453 43.726984 32.381703 43.756563 32.470703 43.851562 C 32.589703 43.970562 32.589422 43.976125 32.482422 44.203125 C 32.410422 44.346125 32.244156 44.514203 32.035156 44.658203 C 31.671156 44.909203 30.530141 45.368156 30.494141 45.285156 C 30.446141 45.148156 30.811922 44.329406 31.044922 44.066406 C 31.277422 43.802406 31.386094 43.717094 31.634766 43.703125 z M 28.570312 48.701172 C 28.615813 48.704172 28.616625 48.743859 28.578125 48.818359 C 28.500125 48.967359 28.296594 49.075203 28.183594 49.033203 C 28.052594 48.979203 28.087875 48.908781 28.296875 48.800781 C 28.434375 48.732281 28.524812 48.698172 28.570312 48.701172 z "
       style="fill:#000000;color:#000000;clip-rule:nonzero;display:inline;overflow:visible;visibility:visible;opacity:0.4;isolation:auto;mix-blend-mode:normal;color-interpolation:sRGB;color-interpolation-filters:linearRGB;solid-color:#000000;solid-opacity:1;fill-opacity:1;fill-rule:nonzero;stroke-width:2;stroke-linecap:square;stroke-linejoin:miter;stroke-miterlimit:4;stroke-dasharray:none;stroke-dashoffset:0;stroke-opacity:1;filter-blend-mode:normal;filter-gaussianBlur-deviation:0;color-rendering:auto;image-rendering:auto;shape-rendering:auto;text-rendering:auto;enable-background:accumulate" />
    <path
       inkscape:export-ydpi="96"
       inkscape:export-xdpi="96"
       d="m 10,61 0,-58 30,0 14,14 0,30 0,14 -14,0 -30,0 z"
       id="path7761"
       style="fill:url(#linearGradient7937);fill-opacity:1"
       inkscape:connector-curvature="0" />
  </g>
</svg>

<svg width="64" xmlns="http://www.w3.org/2000/svg" viewBox="0 0 64 64" height="64">
 <defs>
  <linearGradient id="a" y1="3" y2="61" x2="0" gradientUnits="userSpaceOnUse" gradientTransform="matrix(1 0 0-1 0 64)">
   <stop stop-color="#5e6b78"/>
   <stop offset="1" stop-color="#768492"/>
  </linearGradient>
  <linearGradient id="b" y1="61" y2="47" x2="0" gradientUnits="userSpaceOnUse" gradientTransform="matrix(1 0 0-1 0 64)">
   <stop stop-color="#dedede"/>
   <stop offset="1" stop-color="#fbfbfb"/>
  </linearGradient>
  <linearGradient id="c" y1="17" x1="40" y2="31" x2="54" gradientUnits="userSpaceOnUse">
   <stop stop-color="#383e51"/>
   <stop offset="1" stop-color="#655c6f" stop-opacity="0"/>
  </linearGradient>
 </defs>
 <path fill="url(#a)" d="m10 61v-58h30l14 14v44h-14z"/>
 <g transform="scale(1-1)">
  <rect width="30" x="10" y="-4" fill="#ffffff" height="1" fill-opacity=".412"/>
  <rect width="44" x="10" y="-61" fill="#2e3132" height="1" fill-opacity=".294"/>
 </g>
 <g fill-rule="evenodd">
  <path fill="url(#b)" d="m54 17l-14-14v14z"/>
  <path opacity=".2" fill="url(#c)" d="m40 17l14 14v-14z"/>
 </g>
 <g opacity=".75" fill="#fbfbfb" transform="matrix(.00253-.00036-.00036-.00253 19.272 35.706)">
  <path d="m9471.8 4996c-30.7-15.4-172.7-143.9-314.6-285.9l-259-260.9-71 65.2c-99.8 88.3-203.4 119-308.9 88.3-72.9-21.1-262.9-205.3-1515.7-1456.2-790.5-788.5-1435.1-1440.9-1435.1-1452.4 0-9.6 239.8-259 531.4-550.6l533.4-533.4 934.4 934.4c514.2 514.2 940.1 928.6 947.8 920.9 25-24.9 11.5-483.5-19.2-627.4-15.3-78.7-65.2-216.8-109.3-307-78.7-161.2-86.3-170.8-1245.2-1333.4-640.9-642.7-1176.2-1189.5-1187.7-1212.5-32.6-63.3-24.9-191.9 15.4-270.5 67.1-132.4 270.5-199.5 401-130.5 90.2 48 2388.6 2369.4 2469.2 2496.1 234.1 360.7 341.5 849.9 297.4 1352.6-17.3 199.5-49.9 393.3-88.2 533.4-11.5 38.4 23 80.6 237.9 297.4 203.4 207.2 251.3 266.7 262.9 326.2 24.9 126.6-3.8 203.4-115.1 318.5l-103.6 107.4 276.3 278.2c226.4 230.2 276.3 291.6 287.8 351.1 47.7 253.1-194 454.6-422.3 351"/>
  <path d="m3253.7-602.4c-1648.1-1650-1884-1895.6-2045.2-2112.4-320.4-431.7-698.4-1105.1-974.6-1730.6-178.4-401-178.4-362.6 0-297.4 550.6 203.4 1281.6 556.4 1717.1 830.7 425.9 268.6 502.7 341.5 2417.4 2256.2l1841.8 1843.9-537.2 537.2c-295.5 295.5-541 537.2-546.8 537.2-5.8 0-848-840.3-1872.5-1864.8"/>
 </g>
 <path opacity=".75" fill="#fbfbfb" d="m31.707 43.03c-.621.131-1.313.669-1.647 1.289-.09.161-.233.525-.322.8-.084.28-.161.513-.167.519-.048.06-1.236.346-1.934.466-1.641.287-2.089.394-2.25.543-.316.292-.072.585.376.454.119-.036.627-.137 1.116-.221.49-.084 1.236-.239 1.659-.334.424-.101.782-.167.8-.149.018.018-.054.358-.167.758l-.203.716-.448.197c-.245.107-.597.292-.782.418-.561.37-.669.836-.275 1.134.215.161.812.155 1.182-.006.328-.149.513-.358.77-.901.137-.281.245-.43.328-.448.066-.018.657-.137 1.313-.275.657-.131 1.254-.257 1.331-.275.125-.03.137-.018.101.096-.024.072-.131.281-.245.466-.113.185-.203.406-.203.495 0 .185.155.37.28.322.048-.018.113-.036.143-.036.03 0 .161-.096.292-.215.245-.221.836-1.301.836-1.528 0-.113.09-.143.143-.054.018.03.155.084.304.119.209.054.269.096.269.191 0 .185.304.454.573.507.209.036.478-.006.764-.125.101-.042.107-.03.072.125-.024.096-.197.4-.382.681-.394.585-.872 1.516-.997 1.928-.101.352-.06.615.125.74.167.107.442.06.585-.096.125-.137.806-1.576 1.056-2.232.179-.46.263-.585.669-1.015.334-.352.442-.436.37-.299-.119.257-.113.454.018.573.28.257.686.006 1.039-.639.209-.382.364-.495 1.14-.86l.406-.185-.042.221c-.024.119-.161.46-.304.752-.281.591-.334.967-.167 1.289.113.221.233.227.782.036.764-.257 1.761-.848 2.02-1.188.352-.478.459-.937.245-1.092-.221-.161-.346-.096-.627.316-.376.561-.841.997-1.289 1.218-.209.107-.394.179-.412.161-.024-.024.454-1.307.71-1.91.054-.125.096-.281.096-.346 0-.167-.209-.358-.388-.358-.084 0-.478.161-.872.364-.818.406-.764.442-.555-.322.125-.471.084-.597-.203-.627-.275-.03-.382.06-.633.507-.161.304-.376.555-.788.937-.543.501-.567.519-.693.43-.191-.137-.299-.119-.764.113-.454.227-.603.257-.716.119-.096-.113.054-.173.884-.334.806-.155.907-.197.907-.364 0-.269-.221-.525-.615-.698-.681-.304-.758-.322-1.056-.245-.322.084-.8.543-.865.83-.066.299-.269.209-.269-.119 0-.137-.167-.483-.263-.543-.203-.137-.531.161-.782.71l-.197.424-.442.096c-.573.125-2.238.459-2.459.502-.143.024-.167.012-.137-.072.024-.06.096-.322.167-.591.185-.74.239-.836.507-.931.322-.113 1.409-.579 1.689-.722.131-.066.4-.269.597-.448.603-.561.698-1.08.268-1.462-.119-.101-.275-.209-.346-.239-.22-.084-.764-.113-1.026-.06m.764.824c.119.119.119.125.012.352-.072.143-.239.31-.448.454-.364.251-1.504.71-1.54.627-.048-.137.316-.955.549-1.218.31-.352.4-.388.895-.358.316.018.442.048.531.143m-3.892 4.966c-.078.149-.281.257-.394.215-.131-.054-.096-.125.113-.233.275-.137.358-.131.281.018"/>
</svg>
